X:1
T:Like as a Father
T:Like as a Father
T:William James Kirkpatrick
T:Frances Jane (Fanny) Crosby, 1891
T:Public Domain Courtesy of the Cyber Hymnal™
T:Public Domain Courtesy of the Cyber Hymnal™
C:William James Kirkpatrick
Z:Public Domain
Z:Courtesy of the Cyber Hymnal™
%%score ( 1 2 ) ( 3 4 )
L:1/8
Q:1/4=102
M:3/4
K:Eb
V:1 treble 
V:2 treble 
V:3 bass 
V:4 bass 
V:1
 G^F G | B3 A G^F x | G3 E DE x | G4 F2 | E3 [GB] [^F=A][GB] | [Bd]3 [Ac] [GB][^F=A] | %6
w: 1.~When si- lent|falls the gush- ing|tear, O’er cheeks grown|pale with|care; And on the|heart a cross is|
w: 2.~When one by|one our trea- sured|hopes Like au- tumn|leaves de-|cay, And they who|made our life most|
w: 3.~The clouds that|bode the dar- kest|hour The pur- est|light may|bring; The heart that|mourns its bro- ken|
 [GB]4 [EG]2 | [DF]3 [DB] [Ec][Fd] | [DB]3 [GB] [FA][=EG] | [FA]3 [Ac] [GB][^F=A] | [GB]4 [Ge]2 | %11
w: laid That|seems too hard to|bear, Re- mem- ber|what our Lord has|said, And|
w: dear Are|borne from us a-|way, O look be-|yond the veil of|time, Where|
w: chords The|sweet- est song may|sing; Though oft a|rug- ged path we|tread, Yet|
 [Fd]3 [Fd] [Ec][D=B] | [Ec]3 [Ac] [Ad][Ae] | [Ge]3 [GB] [EG]E | [Ed]4 [Ec]2 | %15
w: trust, in weal or|woe, His ho- ly|Word, that chang- eth|not, Though|
w: springs of com- fort|flow, And trust His|Word, that chang- eth|not, Though|
w: this one thing we|know, God’s ho- ly|Word can nev- er|change, Though|
 [EB][EB] [DA]2 [B,D]2 | [B,E]4 z2 ||[M:4/4]"^Refrain" [EG]2 [EG]>[FA] [GB]2 [EG]2 | %18
w: ut- tered years a-|go.||
w: ut- tered years a-|go.|“Like as a fa- ther|
w: ut- tered years a-|go.||
 [Ec]>[Ec] [Ec][Ee] [Ac]2 [GB]2 | [Ge]>[Ge] [Ge]2 [Bd][Ac][GB][EB] | ([DA]2 [EG]2) [DF]4 | %21
w: |||
w: pit- i- eth His child- ren,|So the Lord pit- ieth them that|fear * Him,|
w: |||
 [EG]>[FA]"^poco ritard" (Be) [Bd][Ac][EB][FA] | ([EG]2 [DF]2) E4 |] %23
w: ||
w: So the Lord * pit- ieth them that|fear * Him.”|
w: ||
V:2
 x3 | x7 | x7 | x6 | x6 | x6 | x6 | x6 | x6 | x6 | x6 | x6 | x6 | x5 E | x6 | x6 | x6 || %17
[M:4/4] x8 | x8 | x8 | x8 | x2 G2 x4 | x4 E4 |] %23
V:3
 B,=A, B, | D3 z CB,=A, | B,3 z G,F,G, | B,4 [B,,A,]2 | [E,,G,]3 z z2 | B,6- | [E,B,-]6 | %7
 B,4 =A,2 | [B,,F,B,]3 [B,,B,] [B,,B,][B,,B,] | [B,,B,]3 [B,,D] [E,E][E,E] | [E,E]4 [E,B,]2 | %11
 [F,A,]3 [F,A,] G,G, | [C,G,]3 [A,E] [A,D][A,C] | [E,B,]3 [E,E] [E,B,][E,G,] | [A,,B,]4 [A,,A,]2 | %15
 [B,,G,][B,,G,] [B,,F,]2 [B,,A,]2 | [E,,E,G,]4 z2 ||[M:4/4] [E,B,]2 [E,B,]>[E,B,] [E,B,]2 [E,B,]2 | %18
 A,>A, A,[A,C] [E,E]2 [E,E]2 | [E,B,]>[E,B,] (B,E) [A,E][A,E][E,E][G,B,] | B,4 [B,,B,]4 | %21
 [E,B,]>[E,B,] [E,E]2 [A,E][A,E][A,E][A,C] | B,2 [B,,A,]2 [E,G,]4 |] %23
V:4
 x3 | B,,2 B,,2 x3 | E,2 E,2 x3 | (B,,2 B,,2) x2 | x6 | B,,2 B,,2 B,,2 | x6 | F,6 | x6 | x6 | x6 | %11
 x4 G,G, | x6 | x6 | x6 | x6 | x6 ||[M:4/4] x8 | A,>A, A, x5 | x2 E,2 x4 | (F,2 E,2) x4 | x8 | %22
 B,2 x6 |] %23

